azure-patterns/svg-mutability.svg

<svg xmlns="http://www.w3.org/2000/svg" viewBox="0 0 48 33"><path fill="#00abec" d="M0 3V0h3v3zm0 6V6h3v3zm0 6v-3h3v3zm0 6v-3h3v3zm0 6v-3h3v3zm0 6v-3h3v3zM6 3V0h3v3zm0 30v-3h3v3zm6 0V0h24v33zm3-30v27h18V3zm24 0V0h3v3zm0 30v-3h3v3zm6-33h3v3h-3zm0 9V6h3v3zm0 6v-3h3v3zm0 6v-3h3v3zm0 6v-3h3v3zm0 6v-3h3v3z"/></svg>

<svg xmlns="http://www.w3.org/2000/svg" viewBox="0 0 48 33">
                                
                            
    <path fill="#00abec" d="M0,3V0H3V3ZM0,9V6H3V9Zm0,6V12H3v3Zm0,6V18H3v3Zm0,6V24H3v3Zm0,6V30H3v3ZM6,3V0H9V3ZM6,33V30H9v3Zm6,0V0H36V33ZM15,3V30H33V3ZM39,3V0h3V3Zm0,30V30h3v3ZM45,0h3V3H45Zm0,9V6h3V9Zm0,6V12h3v3Zm0,6V18h3v3Zm0,6V24h3v3Zm0,6V30h3v3Z"></path>
</svg>
